X: 5641
T: Butterfly, The
R: slip jig
M: 9/8
K: Eminor
[M:15/8]|:B2E G2E F3 B2E FED|B2E G2E F3 BdB AFD:|
|:B2d e2f g3 B2e dBA|B2d e2f g2a bge dBA:|
|:B3 B2A G2A BAB dBA|B3 B2A G2A g2e dBA:|

